src/assets/showcase/images/home/icon-component.svg

<svg height="61" viewBox="0 0 57 61" width="57" xmlns="http://www.w3.org/2000/svg"><g fill="none" fill-rule="evenodd"><path d="m28.31 0-27.864 10 4.25 37.076 23.614 13.164 23.614-13.163 4.25-37.077z" fill="#20272a"/><g fill="#fff"><path d="m36.001 21.911v1.74h5.405v17.276h-26.192v-17.276h3.114v-1.74h-5.046v20.759h30.056v-20.759z"/><path d="m28.015 20.888h5.956v5.82h-5.956zm1.535 6.537h9.74v9.514h-9.74zm-7.937-9.465h5v5.173h-5zm1.887 11.24h3.331v3.253h-3.33zm-3.333-3.962h2.61v2.551h-2.61zm-.009 8.574h2.316v2.263h-2.316z"/></g></g></svg>

<svg xmlns="http://www.w3.org/2000/svg" width="57" height="61" viewBox="0 0 57 61">
    <g fill="none" fill-rule="evenodd">
        <path fill="#20272A" d="M28.31 0L.446 10l4.25 37.076L28.31 60.24l23.614-13.163L56.174 10z"/>
        <g fill="#FFF">
            <path d="M36.001 21.911v1.74h5.405v17.276H15.214V23.651h3.114v-1.74h-5.046V42.67h30.056V21.911z"/>
            <path d="M28.015 20.888h5.956v5.82h-5.956zM29.55 27.425h9.74v9.514h-9.74zM21.613 17.96h5v5.173h-5zM23.5 29.2h3.331v3.253h-3.33zM20.167 25.238h2.61v2.551h-2.61zM20.158 33.812h2.316v2.263h-2.316z"/>
        </g>
    </g>
</svg>
